usr/share/icons/biglinux-icons-material/scalable/apps/eclipse.svg

<svg xmlns="http://www.w3.org/2000/svg" xml:space="preserve" width="24" height="24" viewBox="0 0 6.35 6.35"><defs><radialGradient id="a" cx="0" cy="0" r="1" fx="0" fy="0" gradientTransform="matrix(0 16.5 -16.5 0 9 .75)" gradientUnits="userSpaceOnUse" spreadMethod="pad"><stop offset="0" style="stop-color:#fff;stop-opacity:1"/><stop offset="1" style="stop-color:#6e5dae;stop-opacity:1"/></radialGradient></defs><path d="M7.195.836c.09 0 .176-.012.258-.035a23.86 23.86 0 0 1 3.231.008 10.26 10.26 0 0 1 2.836.636c1.519.625 2.558 1.711 3.121 3.254.316.93.507 1.887.566 2.867a21.227 21.227 0 0 1-.086 3.696 8.976 8.976 0 0 1-.672 2.488c-.637 1.383-1.672 2.336-3.101 2.859a11.693 11.693 0 0 1-3.575.618 15.998 15.998 0 0 1-4.089-.309c-2.481-.551-4.016-2.066-4.594-4.543a14.244 14.244 0 0 1-.336-3.383c-.027-1.211.101-2.41.387-3.59.609-2.312 2.078-3.746 4.406-4.3A10.27 10.27 0 0 1 7.195.836Z" style="fill:url(#a);fill-rule:evenodd;stroke:none;stroke-width:.99975;stroke-dasharray:none" transform="scale(.35277)"/><g transform="matrix(.06843 0 0 .07632 .78 .733)"><rect width="52" height="52" x="-58" y="-58" fill="#f7941e" rx="26" ry="26" transform="matrix(0 -1 -1 0 0 0)"/><g stroke-width=".871"><path fill="#4c3a91" d="M38 6a25.938 25.938 0 0 0-24.63 17.642h49.26A25.938 25.938 0 0 0 37.999 6ZM12.42 27.358a26.183 26.183 0 0 0-.346 2.785h51.855a26.183 26.183 0 0 0-.346-2.786zm-.347 6.498c.066.945.183 1.873.346 2.786h51.163c.163-.913.28-1.841.346-2.786zm1.297 6.501A25.938 25.938 0 0 0 38.001 58a25.938 25.938 0 0 0 24.63-17.643Z"/><path fill="#6e5dae" d="M21.245 39.429A18.2 18.2 0 0 0 38 50.57a18.2 18.2 0 0 0 16.747-11.142Z"/><path fill="#fff" d="M13.37 23.643a25.884 25.884 0 0 0-.952 3.714h51.163a25.884 25.884 0 0 0-.95-3.714zm-1.298 6.5A26.547 26.547 0 0 0 12 32c0 .625.03 1.243.072 1.857h51.855A26.71 26.71 0 0 0 64 32c0-.625-.03-1.243-.073-1.857zm.346 6.5a25.884 25.884 0 0 0 .951 3.714h49.26a25.884 25.884 0 0 0 .951-3.714z"/></g></g></svg>

<?xml version="1.0" encoding="UTF-8" standalone="no"?>
<svg
   width="24"
   height="24"
   viewBox="0 0 6.349875 6.349875"
   version="1.1"
   id="svg190"
   sodipodi:docname="eclipse.svg"
   xml:space="preserve"
   inkscape:version="1.2.2 (b0a8486541, 2022-12-01)"
   inkscape:export-filename="qt-creator.pdf"
   inkscape:export-xdpi="96"
   inkscape:export-ydpi="96"
   xmlns:inkscape="http://www.inkscape.org/namespaces/inkscape"
   xmlns:sodipodi="http://sodipodi.sourceforge.net/DTD/sodipodi-0.dtd"
   xmlns="http://www.w3.org/2000/svg"
   xmlns:svg="http://www.w3.org/2000/svg"><defs
     id="defs194"><rect
       x="5.3268056"
       y="2.0367198"
       width="12.69033"
       height="15.980416"
       id="rect6368" /><linearGradient
       id="paint0_linear_3_286"
       x1="12"
       y1="1"
       x2="12"
       y2="12"
       gradientUnits="userSpaceOnUse"><stop
         stop-color="#EEA5FF"
         id="stop266" /><stop
         offset="1"
         stop-color="#A159B2"
         id="stop268" /></linearGradient><linearGradient
       x1="12"
       y1="1"
       x2="12"
       y2="23"
       gradientUnits="userSpaceOnUse"
       gradientTransform="matrix(0.75,0,0,0.75,-7.98374e-6,-2.49454e-5)"
       spreadMethod="pad"
       id="linearGradient38255-1"><stop
         style="stop-opacity:1;stop-color:#4a74d2"
         offset="0"
         id="stop38251-9" /><stop
         style="stop-opacity:1;stop-color:#375295"
         offset="1"
         id="stop38253-4" /></linearGradient><linearGradient
       id="paint0_linear_18_187"
       x1="12"
       y1="1"
       x2="12"
       y2="23"
       gradientUnits="userSpaceOnUse"
       gradientTransform="matrix(0.26457812,0,0,0.26457812,-2.8164292e-6,9.3778578e-6)"><stop
         stop-color="#33BEF0"
         id="stop43245"
         offset="0"
         style="stop-color:#ff5f5f;stop-opacity:1;" /><stop
         offset="1"
         stop-color="#0A85D9"
         id="stop43247"
         style="stop-color:#e82e34;stop-opacity:1;" /></linearGradient><linearGradient
       x1="12"
       y1="1"
       x2="12"
       y2="23"
       gradientUnits="userSpaceOnUse"
       gradientTransform="matrix(0.75,0,0,0.75,-7.98374e-6,2.65834e-5)"
       spreadMethod="pad"
       id="linearGradient44915"><stop
         style="stop-color:#31d931;stop-opacity:1;"
         offset="0"
         id="stop44911" /><stop
         style="stop-color:#d4f3d4;stop-opacity:1;"
         offset="1"
         id="stop44913" /></linearGradient><linearGradient
       id="paint0_linear_3_286-3"
       x1="12"
       y1="1"
       x2="12"
       y2="12"
       gradientUnits="userSpaceOnUse"><stop
         stop-color="#EEA5FF"
         id="stop266-6" /><stop
         offset="1"
         stop-color="#A159B2"
         id="stop268-7" /></linearGradient><radialGradient
       id="paint0_radial_4_408"
       cx="0"
       cy="0"
       r="1"
       gradientUnits="userSpaceOnUse"
       gradientTransform="matrix(0,5.8207186,-5.8207186,0,3.1749362,0.26458225)"><stop
         stop-color="#D6B1FF"
         id="stop3331"
         offset="0"
         style="stop-color:#cdf2cd;stop-opacity:1;" /><stop
         offset="1"
         stop-color="#A75DFA"
         id="stop3333"
         style="stop-color:#38d23a;stop-opacity:1;" /></radialGradient><radialGradient
       fx="0"
       fy="0"
       cx="0"
       cy="0"
       r="1"
       gradientUnits="userSpaceOnUse"
       gradientTransform="matrix(0,16.5,-16.5,0,8.999996,0.750012)"
       spreadMethod="pad"
       id="radialGradient3666"><stop
         style="stop-opacity:1;stop-color:#cdf2cd"
         offset="0"
         id="stop3662" /><stop
         style="stop-opacity:1;stop-color:#38d23a"
         offset="1"
         id="stop3664" /></radialGradient><radialGradient
       fx="0"
       fy="0"
       cx="0"
       cy="0"
       r="1"
       gradientUnits="userSpaceOnUse"
       gradientTransform="matrix(0,16.5,-16.5,0,8.999996,0.750012)"
       spreadMethod="pad"
       id="radialGradient3666-6"><stop
         style="stop-color:#ffffff;stop-opacity:1;"
         offset="0"
         id="stop3662-7" /><stop
         style="stop-color:#6e5dae;stop-opacity:1;"
         offset="1"
         id="stop3664-5" /></radialGradient><rect
       x="5.3268056"
       y="2.0367198"
       width="12.69033"
       height="15.980416"
       id="rect6368-6" /><radialGradient
       id="paint0_radial_4_408-2"
       cx="0"
       cy="0"
       r="1"
       gradientUnits="userSpaceOnUse"
       gradientTransform="matrix(0,5.8207186,-5.8207186,0,3.1749362,0.26458225)"><stop
         stop-color="#D6B1FF"
         id="stop3331-7"
         offset="0"
         style="stop-color:#cdf2cd;stop-opacity:1;" /><stop
         offset="1"
         stop-color="#A75DFA"
         id="stop3333-0"
         style="stop-color:#38d23a;stop-opacity:1;" /></radialGradient><radialGradient
       fx="0"
       fy="0"
       cx="0"
       cy="0"
       r="1"
       gradientUnits="userSpaceOnUse"
       gradientTransform="matrix(0,16.5,-16.5,0,8.999996,0.750012)"
       spreadMethod="pad"
       id="radialGradient3666-9"><stop
         style="stop-opacity:1;stop-color:#cdf2cd"
         offset="0"
         id="stop3662-3" /><stop
         style="stop-opacity:1;stop-color:#38d23a"
         offset="1"
         id="stop3664-6" /></radialGradient><radialGradient
       fx="0"
       fy="0"
       cx="0"
       cy="0"
       r="1"
       gradientUnits="userSpaceOnUse"
       gradientTransform="matrix(0,16.5,-16.5,0,8.999996,0.750012)"
       spreadMethod="pad"
       id="radialGradient3666-6-0"><stop
         style="stop-opacity:1;stop-color:#cdf2cd"
         offset="0"
         id="stop3662-7-6" /><stop
         style="stop-opacity:1;stop-color:#38d23a"
         offset="1"
         id="stop3664-5-2" /></radialGradient></defs><sodipodi:namedview
     id="namedview192"
     pagecolor="#ffffff"
     bordercolor="#000000"
     borderopacity="0.25"
     inkscape:showpageshadow="2"
     inkscape:pageopacity="0.0"
     inkscape:pagecheckerboard="0"
     inkscape:deskcolor="#d1d1d1"
     showgrid="false"
     inkscape:zoom="9.02666"
     inkscape:cx="-9.7488994"
     inkscape:cy="18.500752"
     inkscape:window-width="1366"
     inkscape:window-height="686"
     inkscape:window-x="0"
     inkscape:window-y="0"
     inkscape:window-maximized="1"
     inkscape:current-layer="svg190" /><g
     id="g3652"
     transform="matrix(0.35277082,0,0,0.35277082,-1.1961624e-4,-9.2306512e-6)"><g
       id="g3654"><g
         id="g3660"><path
           d="m 7.195,0.836 c 0.09,0 0.176,-0.012 0.258,-0.035 1.078,-0.071 2.156,-0.067 3.231,0.008 0.976,0.078 1.921,0.289 2.836,0.636 1.519,0.625 2.558,1.711 3.121,3.254 0.316,0.93 0.507,1.887 0.566,2.867 0.078,1.235 0.051,2.465 -0.086,3.696 -0.105,0.863 -0.328,1.691 -0.672,2.488 -0.637,1.383 -1.672,2.336 -3.101,2.859 C 12.191,17 11,17.207 9.773,17.227 8.398,17.301 7.035,17.195 5.684,16.918 3.203,16.367 1.668,14.852 1.09,12.375 0.844,11.262 0.73,10.133 0.754,8.992 0.727,7.781 0.855,6.582 1.141,5.402 1.75,3.09 3.219,1.656 5.547,1.102 6.09,0.969 6.641,0.879 7.195,0.836 Z"
           style="fill:url(#radialGradient3666-6);fill-rule:evenodd;stroke:none;stroke-width:0.99975;stroke-dasharray:none"
           id="path3668" /></g></g></g><g
     transform="matrix(0.06842538,0,0,0.07632044,0.7800492,0.73268345)"
     id="g20529"><rect
       transform="matrix(0,-1,-1,0,0,0)"
       x="-58"
       y="-58"
       width="52"
       height="52"
       rx="26"
       ry="26"
       fill="#f7941e"
       id="rect20519" /><g
       stroke-width="0.871"
       id="g20527"><path
         d="M 38,6 A 25.938,25.938 0 0 0 13.37,23.642 H 62.63 A 25.938,25.938 0 0 0 37.999,6 Z M 12.42,27.358 a 26.183,26.183 0 0 0 -0.346,2.785 h 51.855 a 26.183,26.183 0 0 0 -0.346,-2.786 z m -0.347,6.498 c 0.066,0.945 0.183,1.873 0.346,2.786 h 51.163 c 0.163,-0.913 0.28,-1.841 0.346,-2.786 z m 1.297,6.501 A 25.938,25.938 0 0 0 38.001,58 25.938,25.938 0 0 0 62.631,40.357 Z"
         fill="#4c3a91"
         id="path20521" /><path
         d="M 21.245,39.429 A 18.2,18.2 0 0 0 38,50.57 18.2,18.2 0 0 0 54.747,39.428 Z"
         fill="#6e5dae"
         id="path20523" /><path
         d="m 13.37,23.643 a 25.884,25.884 0 0 0 -0.952,3.714 h 51.163 a 25.884,25.884 0 0 0 -0.95,-3.714 z m -1.298,6.5 A 26.547,26.547 0 0 0 12,32 c 0,0.625 0.03,1.243 0.072,1.857 H 63.927 A 26.71,26.71 0 0 0 64,32 c 0,-0.625 -0.03,-1.243 -0.073,-1.857 z m 0.346,6.5 a 25.884,25.884 0 0 0 0.951,3.714 h 49.26 a 25.884,25.884 0 0 0 0.951,-3.714 z"
         fill="#ffffff"
         id="path20525" /></g></g></svg>
